X: 151
T: Miss Ann Lothians Strathspey
R: strathspey
M: C|
L: 1/8
Z: 2011 John Chambers <jc:trillian.mit.edu>
B: Abraham Mackintosh "A Collection of Strathspeys, Reels, Jigs &c.", Newcastle, after 1797, p.15
F: http://imslp.info/files/imglnks/usimg/a/a8/IMSLP80796-PMLP164326-Abraham_Mackintosh_coll.pdf
K: D
V: 1
A |\
F>GA<d B>dA>d | G<dF>d B<EE>G | F>GA<d B<dA>d | B>AB>c dDD :|
a/g/ |\
f>ad>a f<da>d | c<eA>e c>e Aa/g/ | f<ad>a f<da>d | B>ABc dDD a/g/ |
y3 |\
f<ad>a f<da>d | c>eA>e c>e Aa/g/ | f>dg>e a>fb>g | f>ae>f dDD |]
V: 2 clef=bass middle=d
z |\
d2f2 g2f2 | e2d2 e2c2 | d2f2 g2f2 | g2a2 d2D :|
z |\
d2d2 d2d2 | a2a2 a2a2 | d2f2 d2f2 | g2a2 d2d2 |
y3 |\
d2d2 d2d2 | a2a2 a2a2 | d2e2 f2g2 | a2A2 d2D |]

%%sep 2 1 500

